images/hamburger.svg

<svg width="24" height="18" fill="none" xmlns="http://www.w3.org/2000/svg"><path fill-rule="evenodd" clip-rule="evenodd" d="M0 0h24v2H0V0Zm0 8h24v2H0V8Zm24 8H0v2h24v-2Z" fill="#fff"/></svg>

<svg width="24" height="18" viewBox="0 0 24 18" fill="none" xmlns="http://www.w3.org/2000/svg">
<path id="Combined Shape" fill-rule="evenodd" clip-rule="evenodd" d="M0 0H24V2H0V0ZM0 8H24V10H0V8ZM24 16H0V18H24V16Z" fill="white"/>
</svg>
